X: 1674
T: Loge and Vivvy's Schottische
B: australian traditional tunes wiki
M:4/4
L:1/8
R: Schottische
Q: 1/4=100
K:D
V:1 
A>G|:"D"F2A>d (3faf e>d|"G"B<G D>GB2(3BcB|"A"A2c>B A>G- F>E|1"D"D>F- A>d f2fz:|2"D"D2d>d dz A>A||
|:"D"[A2F2]A>A A>f e>d|"G"B2 B>BB2 e>d|"A"c2c>c c<b a>c|1"D"d2f>e f2"A"A>A:|2"D"d2(3ded dz||
% abcbook-tune_id 6342d53af7f25a591f04c5e2


% abcbook-boost 0
% abcbook-tablature 
% abcbook-transpose 
% abcbook-lastupdated 1665324377392
% abcbook-soundfonts 
% abcbook-repeats 1
% NFF Book 2006

